X: 030583
T: Charlie Mulvihill's
S: Treoir 
Z: B.Black
M: 4/4
L: 1/8
R: hornpipe 
K: G
(3DEF | GABc d2 Bd | efgf edBd | ceAc (3Bcd GB |\
cBAG FDEF |
GABc d2 Bd |efgf edBd |ceAc (3Bcd GB |cAFA G2 :|
Bd | gfga bgdg |edef gdBd |gfga bgdg |edcB A2 Bd |
gfga bgdg | edef gdBG |DGBd gdBd |cAFA G2 :|
